Icons/com_stackexchange_marvin.svg

<svg viewBox="0 0 48 48" xmlns:xlink="http://www.w3.org/1999/xlink">
 <defs>
  <linearGradient id="0">
   <stop stop-opacity="0"/>
   <stop offset="1"/>
  </linearGradient>
  <linearGradient xlink:href="#0" id="1" gradientUnits="userSpaceOnUse" gradientTransform="translate(4e-7,-48)" y1="47" x2="0" y2="1"/>
  <clipPath id="2">
   <g transform="translate(0,-1004.3622)">
    <rect rx="4" y="1005.36" x="1" height="46" width="46" fill="#1890d0"/>
   </g>
  </clipPath>
  <clipPath id="3">
   <g transform="translate(0,-1004.3622)">
    <rect rx="4" y="1005.36" x="1" height="46" width="46" fill="#1890d0"/>
   </g>
  </clipPath>
 </defs>
 <g>
  <g transform="translate(0,-1004.3622)">
   <path d="m 5,1006.3622 c -2.216,0 -4,1.784 -4,4 l 0,37.25 c 0,2.216 1.784,4 4,4 l 38,0 c 2.216,0 4,-1.784 4,-4 l 0,-37.25 c 0,-2.216 -1.784,-4 -4,-4 l -38,0 z m -4,41.5 0,0.5 c 0,2.216 1.784,4 4,4 l 38,0 c 2.216,0 4,-1.784 4,-4 l 0,-0.5 c 0,2.216 -1.784,4 -4,4 l -38,0 c -2.216,0 -4,-1.784 -4,-4 z" opacity="0.02"/>
   <path d="m 1,1047.6122 0,0.25 c 0,2.216 1.784,4 4,4 l 38,0 c 2.216,0 4,-1.784 4,-4 l 0,-0.25 c 0,2.216 -1.784,4 -4,4 l -38,0 c -2.216,0 -4,-1.784 -4,-4 z" opacity="0.05"/>
   <rect width="46" height="46" x="1" y="1005.61" rx="4" opacity="0.1"/>
  </g>
 </g>
 <g>
  <g transform="translate(0,-1004.3622)">
   <rect rx="4" y="1005.36" x="1" height="46" width="46" fill="#daf2fc"/>
  </g>
 </g>
 <g>
  <rect transform="scale(1,-1)" width="46" height="46" x="1" y="-46.998" rx="4" opacity="0.1" fill="url(#1)"/>
 </g>
 <g>
  <g clip-path="url(#2)">
   <g opacity="0.1">
    <g>
     <path d="M 18.53125 12 C 16.566406 12 15 13.566406 15 15.53125 L 15 17 L 33 17 L 33 15.53125 C 33 13.566406 31.433594 12 29.46875 12 Z M 18.53125 12 "/>
     <path d="M 15 19 L 15 22 L 33 22 L 33 19 Z M 15 19 "/>
     <path d="M 15 24 L 15 27 L 33 27 L 33 24 Z M 15 24 "/>
     <path d="M 15 29 L 15 30.46875 C 15 32.433594 16.566406 34 18.53125 34 L 29.46875 34 C 31.433594 34 33 32.433594 33 30.46875 L 33 29 Z M 15 29 "/>
     <path d="M 26 34 L 26 38 L 29 34 L 29 33 L 26 33 Z M 26 34 "/>
    </g>
   </g>
  </g>
 </g>
 <g>
  <g clip-path="url(#3)">
   <g transform="translate(0,-1)">
    <g>
     <path d="M 18.53125 12 C 16.566406 12 15 13.566406 15 15.53125 L 15 17 L 33 17 L 33 15.53125 C 33 13.566406 31.433594 12 29.46875 12 Z M 18.53125 12 " fill="#69abde"/>
     <path d="M 15 19 L 15 22 L 33 22 L 33 19 Z M 15 19 " fill="#4ba2d7"/>
     <path d="M 15 24 L 15 27 L 33 27 L 33 24 Z M 15 24 " fill="#356eb4"/>
     <path d="M 15 29 L 15 30.46875 C 15 32.433594 16.566406 34 18.53125 34 L 29.46875 34 C 31.433594 34 33 32.433594 33 30.46875 L 33 29 Z M 15 29 " fill="#1f5295"/>
     <path d="M 26 34 L 26 38 L 29 34 L 29 33 L 26 33 Z M 26 34 " fill="#1f5295"/>
    </g>
   </g>
  </g>
 </g>
 <g>
  <g transform="translate(0,-1004.3622)">
   <path d="m 1,1043.3622 0,4 c 0,2.216 1.784,4 4,4 l 38,0 c 2.216,0 4,-1.784 4,-4 l 0,-4 c 0,2.216 -1.784,4 -4,4 l -38,0 c -2.216,0 -4,-1.784 -4,-4 z" opacity="0.1"/>
  </g>
 </g>
</svg>

<svg viewBox="0 0 48 48"><defs><linearGradient id="linearGradient3764" x1="1" x2="47" gradientUnits="userSpaceOnUse" gradientTransform="translate(-48.000001,0.00221467)"><stop stop-color="#c7ecfb" stop-opacity="1"/><stop offset="1" stop-color="#daf2fc" stop-opacity="1"/></linearGradient><clipPath id="clipPath-788968494"><g transform="translate(0,-1004.3622)"><rect rx="4" y="1005.36" x="1" height="46" width="46" fill="#1890d0"/></g></clipPath><clipPath id="clipPath-801413377"><g transform="translate(0,-1004.3622)"><rect rx="4" y="1005.36" x="1" height="46" width="46" fill="#1890d0"/></g></clipPath></defs><g><path d="m 1 43 l 0 0.25 c 0 2.216 1.784 4 4 4 l 38 0 c 2.216 0 4 -1.784 4 -4 l 0 -0.25 c 0 2.216 -1.784 4 -4 4 l -38 0 c -2.216 0 -4 -1.784 -4 -4 z m 0 0.5 l 0 0.5 c 0 2.216 1.784 4 4 4 l 38 0 c 2.216 0 4 -1.784 4 -4 l 0 -0.5 c 0 2.216 -1.784 4 -4 4 l -38 0 c -2.216 0 -4 -1.784 -4 -4 z" opacity="0.02"/><path d="m 1 43.25 l 0 0.25 c 0 2.216 1.784 4 4 4 l 38 0 c 2.216 0 4 -1.784 4 -4 l 0 -0.25 c 0 2.216 -1.784 4 -4 4 l -38 0 c -2.216 0 -4 -1.784 -4 -4 z" opacity="0.05"/><path d="m 1 43 l 0 0.25 c 0 2.216 1.784 4 4 4 l 38 0 c 2.216 0 4 -1.784 4 -4 l 0 -0.25 c 0 2.216 -1.784 4 -4 4 l -38 0 c -2.216 0 -4 -1.784 -4 -4 z" opacity="0.1"/></g><g><rect width="46" height="46" x="-47" y="1" rx="4" transform="matrix(0,-1,1,0,0,0)" fill="url(#linearGradient3764)" fill-opacity="1"/></g><g><g clip-path="url(#clipPath-788968494)"><g opacity="0.1"><!-- color: #daf2fc --><g><path d="m 18.531 12 c -1.965 0 -3.531 1.566 -3.531 3.531 l 0 1.469 l 18 0 l 0 -1.469 c 0 -1.965 -1.566 -3.531 -3.531 -3.531 m -10.938 0" fill="#000"/><path d="m 15 19 l 0 3 l 18 0 l 0 -3 m -18 0" fill="#000"/><path d="m 15 24 l 0 3 l 18 0 l 0 -3 m -18 0" fill="#000"/><path d="m 15 29 l 0 1.469 c 0 1.965 1.566 3.531 3.531 3.531 l 10.938 0 c 1.965 0 3.531 -1.566 3.531 -3.531 l 0 -1.469 m -18 0" fill="#000"/><path d="m 26 34 l 0 4 l 3 -4 l 0 -1 l -3 0 m 0 1" fill="#000"/></g></g></g></g><g><g clip-path="url(#clipPath-801413377)"><g transform="translate(0,-1)"><!-- color: #daf2fc --><g><path d="m 18.531 12 c -1.965 0 -3.531 1.566 -3.531 3.531 l 0 1.469 l 18 0 l 0 -1.469 c 0 -1.965 -1.566 -3.531 -3.531 -3.531 m -10.938 0" fill="#69abde"/><path d="m 15 19 l 0 3 l 18 0 l 0 -3 m -18 0" fill="#4ba2d7"/><path d="m 15 24 l 0 3 l 18 0 l 0 -3 m -18 0" fill="#356eb4"/><path d="m 15 29 l 0 1.469 c 0 1.965 1.566 3.531 3.531 3.531 l 10.938 0 c 1.965 0 3.531 -1.566 3.531 -3.531 l 0 -1.469 m -18 0" fill="#1f5295"/><path d="m 26 34 l 0 4 l 3 -4 l 0 -1 l -3 0 m 0 1" fill="#1f5295"/></g></g></g></g><g><g transform="translate(0,-1004.3622)"><path d="m 1 1043.36 0 4 c 0 2.216 1.784 4 4 4 l 38 0 c 2.216 0 4 -1.784 4 -4 l 0 -4 c 0 2.216 -1.784 4 -4 4 l -38 0 c -2.216 0 -4 -1.784 -4 -4 z" opacity="0.1"/></g></g></svg>
